svg/fluentui-system-icons/ic_fluent_document_percent_24_regular.svg

<svg width="24" height="24" viewBox="0 0 24 24" fill="none" xmlns="http://www.w3.org/2000/svg">
<path d="M18.5 20C18.5 20.275 18.276 20.5 18 20.5H13C13 21.0368 12.8792 21.5454 12.6632 22H18C19.104 22 20 21.104 20 20V9.828C20 9.298 19.789 8.789 19.414 8.414L13.585 2.586C13.57 2.57105 13.5531 2.55808 13.5363 2.5452C13.5238 2.53567 13.5115 2.5262 13.5 2.516C13.429 2.452 13.359 2.389 13.281 2.336C13.2557 2.31894 13.2281 2.30548 13.2005 2.29207C13.1845 2.28426 13.1685 2.27647 13.153 2.268C13.1363 2.25859 13.1197 2.24897 13.103 2.23933C13.0488 2.20797 12.9944 2.17648 12.937 2.152C12.74 2.07 12.528 2.029 12.313 2.014C12.2933 2.01274 12.2738 2.01008 12.2542 2.00741C12.2271 2.00371 12.1999 2 12.172 2H6C4.896 2 4 2.896 4 4V11.0354C4.55203 11.1144 5.0625 11.3222 5.5 11.6273V4C5.5 3.725 5.724 3.5 6 3.5H12V8C12 9.104 12.896 10 14 10H18.5V20ZM13.5 4.621L17.378 8.5H14C13.724 8.5 13.5 8.275 13.5 8V4.621ZM6 14.5C6 15.8807 4.88071 17 3.5 17C2.11929 17 1 15.8807 1 14.5C1 13.1193 2.11929 12 3.5 12C4.88071 12 6 13.1193 6 14.5ZM4.5 14.5C4.5 13.9477 4.05228 13.5 3.5 13.5C2.94772 13.5 2.5 13.9477 2.5 14.5C2.5 15.0523 2.94772 15.5 3.5 15.5C4.05228 15.5 4.5 15.0523 4.5 14.5ZM12 20.5C12 21.8807 10.8807 23 9.5 23C8.11929 23 7 21.8807 7 20.5C7 19.1193 8.11929 18 9.5 18C10.8807 18 12 19.1193 12 20.5ZM10.5 20.5C10.5 19.9477 10.0523 19.5 9.5 19.5C8.94772 19.5 8.5 19.9477 8.5 20.5C8.5 21.0523 8.94772 21.5 9.5 21.5C10.0523 21.5 10.5 21.0523 10.5 20.5ZM10.7803 13.2197C11.0732 13.5126 11.0732 13.9874 10.7803 14.2803L3.28033 21.7803C2.98744 22.0732 2.51256 22.0732 2.21967 21.7803C1.92678 21.4874 1.92678 21.0126 2.21967 20.7197L9.71967 13.2197C10.0126 12.9268 10.4874 12.9268 10.7803 13.2197Z" fill="#212121"/>
</svg>

<svg xmlns="http://www.w3.org/2000/svg" width="24" height="24"><path d="M18.5 20a.5.5 0 0 1-.5.5h-5c0 .537-.12 1.045-.337 1.5H18a2 2 0 0 0 2-2V9.828a2 2 0 0 0-.586-1.414l-5.829-5.828a.491.491 0 0 0-.049-.04.63.63 0 0 1-.036-.03 2.072 2.072 0 0 0-.219-.18.652.652 0 0 0-.08-.044l-.048-.024-.05-.029c-.054-.031-.109-.063-.166-.087a1.977 1.977 0 0 0-.624-.138.56.56 0 0 1-.059-.007.605.605 0 0 0-.082-.007H6a2 2 0 0 0-2 2v7.035a3.482 3.482 0 0 1 1.5.592V4a.5.5 0 0 1 .5-.5h6V8a2 2 0 0 0 2 2h4.5v10Zm-5-15.379L17.378 8.5H14a.5.5 0 0 1-.5-.5V4.621ZM6 14.5a2.5 2.5 0 1 1-5 0 2.5 2.5 0 0 1 5 0Zm-1.5 0a1 1 0 1 0-2 0 1 1 0 0 0 2 0Zm7.5 6a2.5 2.5 0 1 1-5 0 2.5 2.5 0 0 1 5 0Zm-1.5 0a1 1 0 1 0-2 0 1 1 0 0 0 2 0Zm.28-7.28a.75.75 0 0 1 0 1.06l-7.5 7.5a.75.75 0 0 1-1.06-1.06l7.5-7.5a.75.75 0 0 1 1.06 0Z"/></svg>
